svgs/liquipedia.svg

<svg width="192" height="192" viewBox="0 0 192 192" fill="none" xmlns="http://www.w3.org/2000/svg">
<path d="M132.406 39H132.172C130.854 39.1456 104.198 41.6198 100.155 42.9007C98.3685 43.4538 95.5271 44.9965 96.7573 49.1883C97.1675 50.5856 98.925 53.6128 100.507 56.3201C100.741 56.7275 100.946 57.0769 101.063 57.2805C104.198 62.7532 103.202 66.6537 101.971 69.4484C99.5107 75.0665 94.1504 77.0748 89.9322 77.0748C87.4422 77.0748 84.9819 76.4054 83.0484 75.2119C77.0142 71.4568 74.8758 66.2463 76.487 59.2891C77.3072 55.534 77.6295 52.827 77.4535 50.993C77.3072 49.5957 76.6333 48.5188 75.5203 47.8491C74.6709 47.3543 73.587 47.0923 72.2395 47.0923C69.574 47.0923 66.7326 48.1112 66.4104 48.2276L45.6128 55.0974C44.8806 55.3302 44.3238 55.796 44.0018 56.4075C43.7967 56.8439 43.5916 57.5426 43.9138 58.474L49.4501 74.9791C50.7097 78.705 50.358 80.3061 49.8601 81.0046C49.4501 81.5868 48.6005 81.878 47.3997 81.878C47.1066 81.878 46.8138 81.8488 46.4622 81.8196L43.035 81.4704L36.3857 80.801C35.9755 80.7717 35.5655 80.7428 35.1553 80.7428C31.4939 80.7428 27.8615 82.4311 25.1666 85.3711C22.1789 88.6894 20.6556 93.2888 21.0658 97.9754C21.6809 104.583 25.196 108.338 28.008 110.318C31.3472 112.675 35.1261 113.549 37.3231 113.578H37.5867C40.7502 113.578 44.0604 112.646 48.0148 110.638C52.057 108.571 53.6974 108.251 54.3127 108.251H54.4299C56.6853 108.484 56.6268 113.229 56.6268 113.258V113.316L56.9782 141.465V141.581C57.2125 143.415 58.5015 144.055 59.5559 144.055H59.7902C61.1084 143.939 87.7645 141.436 91.7775 140.184C93.5644 139.631 96.4058 138.088 95.1754 133.896C94.7655 132.499 93.0079 129.472 91.4261 126.764C91.1918 126.357 90.9867 126.008 90.8696 125.804C87.7353 120.331 88.7312 116.431 89.9614 113.636C92.422 108.018 97.7826 106.009 102.001 106.009C104.49 106.009 106.951 106.679 108.884 107.872C114.919 111.628 117.057 116.838 115.446 123.795C114.626 127.55 114.303 130.258 114.479 132.092C114.626 133.489 115.299 134.566 116.413 135.235C117.262 135.73 118.346 135.992 119.693 135.992C122.359 135.992 125.2 134.973 125.523 134.857L146.32 127.987C147.052 127.754 147.609 127.288 147.931 126.677C148.136 126.24 148.341 125.542 148.019 124.61L142.483 108.105C141.223 104.379 141.575 102.778 142.073 102.08C142.483 101.497 143.332 101.206 144.533 101.206C144.826 101.206 145.119 101.236 145.471 101.265L148.898 101.614L155.547 102.284C155.957 102.313 156.367 102.342 156.777 102.342C160.439 102.342 164.071 100.653 166.766 97.7134C169.842 94.3659 171.365 89.7375 170.926 85.0509C170.311 78.4432 166.795 74.688 163.983 72.7085C160.644 70.3507 156.865 69.4774 154.668 69.4484H154.405C151.241 69.4484 147.931 70.3799 143.977 72.3882C139.934 74.455 138.294 74.7752 137.679 74.7752H137.562C135.306 74.5424 135.365 69.7976 135.365 69.7684V69.7102L134.984 41.6198V41.5034C134.75 39.6405 133.461 39 132.406 39Z" stroke="black" stroke-width="10"/>
<path d="M94.2333 137.724C93.7114 135.908 90.5798 130.557 89.8124 129.155C86.2818 122.689 87.4484 117.88 88.7991 114.631C89.2905 113.453 89.8737 112.433 90.5492 111.478C88.0625 103.133 87.7245 87.9089 89.1369 94.0867C90.5492 100.265 93.7238 104.708 95.5045 107.192C100.509 103.88 105.869 104.757 110.474 107.751C115.386 110.968 117.689 114.918 118.303 119.122L130.061 124.346L137 113.675L117.842 83.6711C116.43 79.9127 116.983 75.2623 116.983 75.2623C116.246 75.0075 109.461 71.2173 103.474 67.841C99.3296 76.8231 88.5844 78.4475 82.0142 74.1794C77.1943 71.058 74.9223 67.2038 74.2163 63.095C72.0057 64.4009 69.6417 66.0892 67.1855 68.1277C63.4709 63.2863 60.6918 61.7719 56.5164 54L45.9245 57.6631C45.0957 57.9498 44.6352 58.6504 44.9729 59.6698C44.9729 59.6698 45.2493 60.5614 45.7098 61.963C51.6351 69.1932 56.164 70.0068 61.0455 74.1794C59.234 76.1861 57.4534 78.4156 55.7955 80.8682C53.7679 79.7632 51.7617 78.6164 49.7782 77.4284C49.7782 80.1356 48.458 82.0467 44.3134 81.6327C41.3659 81.3142 34.0438 82.5954 33 82.5C32.079 82.4044 31.1885 82.4361 30.2983 82.5637C37.7893 86.0672 45.9405 86.6654 51.4667 88.2578C50.2079 90.774 49.0719 93.4496 48.1203 96.2845C40.7827 95.8067 30.0067 94.4688 19.691 91.3794C19.0794 93.4938 18.8709 95.7117 19.0771 97.9089C19.384 101.54 20.52 104.375 22.0549 106.604C31.0197 106.827 40.7142 104.189 46.8545 103.234C46.486 105.145 45.1731 108.898 44.9581 110.936C45.1117 110.841 45.265 110.777 45.4492 110.681C48.3967 109.121 51.3439 107.815 52.879 107.942C56.5631 108.324 56.3482 114.822 56.3482 114.822L56.7165 145.623C56.9315 147.343 58.2516 147.152 58.2516 147.152C58.2516 147.152 87.4176 144.317 91.5316 142.947C95.2158 141.768 94.5711 138.934 94.2333 137.724ZM128.097 113.675L129.369 114.12L132.088 114.79L126.93 115.778C126.93 115.778 122.889 112.213 124.597 111.35C126.056 110.613 128.097 113.675 128.097 113.675ZM109.4 81.6009L112.224 84.4039C112.224 84.4039 108.878 85.8372 107.435 84.8817C105.992 83.8942 103.659 78.543 103.659 78.543L109.4 81.6009Z" stroke="black" stroke-width="6" stroke-linejoin="round"/>
</svg>

<svg width="192" height="192" viewBox="0 0 192 192" fill="none" xmlns="http://www.w3.org/2000/svg"><path d="M132.406 39h-.234c-1.318.146-27.974 2.62-32.017 3.9-1.787.554-4.628 2.096-3.398 6.288.41 1.398 2.168 4.425 3.75 7.132.234.407.439.757.556.96 3.135 5.473 2.139 9.374.908 12.168-2.46 5.619-7.82 7.627-12.039 7.627-2.49 0-4.95-.67-6.884-1.863-6.034-3.755-8.172-8.966-6.561-15.923.82-3.755 1.142-6.462.967-8.296-.147-1.397-.82-2.474-1.934-3.144-.85-.495-1.933-.757-3.28-.757-2.666 0-5.507 1.02-5.83 1.136l-20.797 6.87c-.732.232-1.29.698-1.611 1.31-.205.436-.41 1.135-.088 2.066l5.536 16.505c1.26 3.726.908 5.327.41 6.026-.41.582-1.26.873-2.46.873-.293 0-.586-.03-.938-.058l-3.427-.35-6.65-.669c-.41-.03-.82-.058-1.23-.058-3.661 0-7.294 1.688-9.988 4.628-2.988 3.318-4.511 7.918-4.101 12.604.615 6.608 4.13 10.363 6.942 12.343 3.34 2.357 7.118 3.231 9.315 3.26h.264c3.163 0 6.473-.932 10.428-2.94 4.042-2.067 5.682-2.387 6.298-2.387h.117c2.255.233 2.197 4.978 2.197 5.007v.058l.351 28.149v.116c.234 1.834 1.523 2.474 2.578 2.474h.234c1.318-.116 27.974-2.619 31.988-3.871 1.786-.553 4.628-2.096 3.397-6.288-.41-1.397-2.167-4.424-3.749-7.132-.234-.407-.44-.756-.556-.96-3.135-5.473-2.139-9.373-.909-12.168 2.461-5.618 7.822-7.627 12.04-7.627 2.489 0 4.95.67 6.883 1.863 6.035 3.756 8.173 8.966 6.562 15.923-.82 3.755-1.143 6.463-.967 8.297.147 1.397.82 2.474 1.934 3.143.849.495 1.933.757 3.28.757 2.666 0 5.507-1.019 5.83-1.135l20.797-6.87c.732-.233 1.289-.699 1.611-1.31.205-.437.41-1.135.088-2.067l-5.536-16.505c-1.26-3.726-.908-5.327-.41-6.025.41-.583 1.259-.874 2.46-.874.293 0 .586.03.938.059l3.427.349 6.649.67c.41.029.82.058 1.23.058 3.662 0 7.294-1.689 9.989-4.629 3.076-3.347 4.599-7.975 4.16-12.662-.615-6.608-4.131-10.363-6.943-12.343-3.339-2.357-7.118-3.23-9.315-3.26h-.263c-3.164 0-6.474.932-10.428 2.94-4.043 2.067-5.683 2.387-6.298 2.387h-.117c-2.256-.233-2.197-4.977-2.197-5.007v-.058l-.381-28.09v-.117c-.234-1.862-1.523-2.503-2.578-2.503Z" stroke="#000" stroke-width="10"/><path d="M94.233 137.724c-.522-1.816-3.653-7.167-4.42-8.569-3.531-6.466-2.365-11.275-1.014-14.524a16.146 16.146 0 0 1 1.75-3.153c-2.487-8.345-2.825-23.57-1.412-17.391 1.412 6.178 4.587 10.621 6.367 13.105 5.005-3.312 10.365-2.435 14.97.559 4.912 3.217 7.215 7.167 7.829 11.371l11.758 5.224L137 113.675l-19.158-30.004c-1.412-3.758-.859-8.409-.859-8.409-.737-.255-7.522-4.045-13.509-7.421-4.144 8.982-14.89 10.607-21.46 6.338-4.82-3.121-7.092-6.975-7.798-11.084-2.21 1.306-4.574 2.994-7.03 5.033-3.715-4.842-6.494-6.356-10.67-14.128l-10.591 3.663c-.83.287-1.29.987-.952 2.007 0 0 .276.891.737 2.293 5.925 7.23 10.454 8.044 15.335 12.216a60.883 60.883 0 0 0-5.25 6.69 170.475 170.475 0 0 1-6.017-3.44c0 2.707-1.32 4.618-5.465 4.204-2.947-.319-10.27.962-11.313.867a10.916 10.916 0 0 0-2.702.064c7.491 3.503 15.643 4.101 21.169 5.694a62.125 62.125 0 0 0-3.347 8.026c-7.337-.477-18.113-1.815-28.429-4.905a17.597 17.597 0 0 0-.614 6.53c.307 3.631 1.443 6.466 2.978 8.695 8.965.223 18.66-2.415 24.8-3.37-.369 1.911-1.682 5.664-1.897 7.702.154-.095.307-.159.491-.255 2.948-1.56 5.895-2.866 7.43-2.739 3.684.382 3.47 6.88 3.47 6.88l.368 30.801c.215 1.72 1.535 1.529 1.535 1.529s29.166-2.835 33.28-4.205c3.684-1.179 3.04-4.013 2.701-5.223Zm33.864-24.049 1.272.445 2.719.67-5.158.988s-4.041-3.565-2.333-4.428c1.459-.737 3.5 2.325 3.5 2.325ZM109.4 81.601l2.824 2.803s-3.346 1.433-4.789.478c-1.443-.988-3.776-6.339-3.776-6.339l5.741 3.058Z" stroke="#000" stroke-width="6" stroke-linejoin="round"/></svg>
